icon/cg/insert-before-r.svg

<svg viewBox="0 0 24 24" fill="none" xmlns="http://www.w3.org/2000/svg" height="1em" width="1em">
  <path d="M5 3C4.44772 3 4 2.55228 4 2C4 1.44772 4.44772 1 5 1H19C19.5523 1 20 1.44772 20 2C20 2.55228 19.5523 3 19 3H5Z" fill="currentColor"/>
  <path d="M9 15C8.44772 15 8 14.5523 8 14C8 13.4477 8.44772 13 9 13H11V11C11 10.4477 11.4477 10 12 10C12.5523 10 13 10.4477 13 11V13H15C15.5523 13 16 13.4477 16 14C16 14.5523 15.5523 15 15 15H13V17C13 17.5523 12.5523 18 12 18C11.4477 18 11 17.5523 11 17V15H9Z" fill="currentColor"/>
  <path fill-rule="evenodd" clip-rule="evenodd" d="M4 19C4 20.6569 5.34315 22 7 22H17C18.6569 22 20 20.6569 20 19V9C20 7.34315 18.6569 6 17 6H7C5.34315 6 4 7.34315 4 9V19ZM17 20C17.5523 20 18 19.5523 18 19V9C18 8.44772 17.5523 8 17 8H7C6.44772 8 6 8.44772 6 9V19C6 19.5523 6.44772 20 7 20H17Z" fill="currentColor"/>
</svg>

<svg width="24" height="24" fill="none" xmlns="http://www.w3.org/2000/svg"><path d="M5 3a1 1 0 0 1 0-2h14a1 1 0 1 1 0 2H5ZM9 15a1 1 0 1 1 0-2h2v-2a1 1 0 1 1 2 0v2h2a1 1 0 1 1 0 2h-2v2a1 1 0 1 1-2 0v-2H9Z" fill="currentColor"/><path fill-rule="evenodd" clip-rule="evenodd" d="M4 19a3 3 0 0 0 3 3h10a3 3 0 0 0 3-3V9a3 3 0 0 0-3-3H7a3 3 0 0 0-3 3v10Zm13 1a1 1 0 0 0 1-1V9a1 1 0 0 0-1-1H7a1 1 0 0 0-1 1v10a1 1 0 0 0 1 1h10Z" fill="currentColor"/></svg>
